**kern	**kern	**dynam
*part1	*part1	*part1
*staff2	*staff1	*
*I"Piano	*	*
*clefF4	*clefG2	*
*k[b-e-a-]	*k[b-e-a-]	*
=1	=1	=1
4.r	4.r	.
=	=	=
*^	*^	*
4.B-	(8GL	(8b-XL	8e-L	.
.	8F	8dd	8a-	.
.	8E-J)	8ee-J)	8gJ	.
*v	*v	*	*	*
*	*v	*v	*
=	=	=
8r	8r	.
8r	8r	.
8AA- 8A-	8c 8e- 8cc	.
=	=	=
*	*^	*
8r	8r	8r	.
8GL	8b-'L	4e-	.
8E-J	8g'J	.	.
=	=	=	=
4.AA- 4.A-	(8fL	4.c	.
.	8e-)	.	.
.	8fJ	.	.
*	*v	*v	*
=	=	=
*^	*	*
(8GGLyy	[4.GG	4Bn 4g	f
8D	.	.	.
8GJ	.	(8d 8g 8bn	f
=	=	=	=
4Bn	4.GG]	4d 4g 4dd	.
[8G	.	8d 8g 8bn	.
=	=	=	=
8GGL]	[4.GG	4Bn 4d 4g	.
8D	.	.	.
8GJ	.	8d 8g 8bn	.
=	=	=	=
*	*	*^	*
8BnL	4.GG]	8ddL	4g	.
8G	.	8bn	.	.
8cJ)	.	8ee-J	8e- 8g	.
*v	*v	*	*	*
*	*v	*v	*
=	=	=
*-	*-	*-
!!!system-decoration: {(s1,s2)}
